storage/app/icons/phosphoricons/light/sidebar-simple-light.svg

<svg xmlns="http://www.w3.org/2000/svg" fill="currentColor" viewBox="0 0 256 256"><path d="M216 42H40a14 14 0 0 0-14 14v144a14 14 0 0 0 14 14h176a14 14 0 0 0 14-14V56a14 14 0 0 0-14-14M38 200V56a2 2 0 0 1 2-2h42v148H40a2 2 0 0 1-2-2m180 0a2 2 0 0 1-2 2H94V54h122a2 2 0 0 1 2 2Z"/></svg>

<svg xmlns="http://www.w3.org/2000/svg" viewBox="0 0 256 256" fill="currentColor"><path d="M216,42H40A14,14,0,0,0,26,56V200a14,14,0,0,0,14,14H216a14,14,0,0,0,14-14V56A14,14,0,0,0,216,42ZM38,200V56a2,2,0,0,1,2-2H82V202H40A2,2,0,0,1,38,200Zm180,0a2,2,0,0,1-2,2H94V54H216a2,2,0,0,1,2,2Z"/></svg>
